X:1
T:James Gibb editions
T:Ave maris stella - Ravanello
T:#
%%score [ 1 2 3 ]
L:1/8
Q:1/4=66
M:4/4
K:C
V:1 treble nm="Soprano I"
V:2 treble nm="Soprano II"
V:3 treble nm="Alto I" snm="A"
V:1
"^Ave maris stella, op.66/25""^andante moderato""^Oreste Ravanello\n (1871-1938)"!p! e4 c2 (AB | %1
w: A- ve ma\- *|
w: Sol- ve vin\- *|
w: Vir- go sin\- *|
w: Sit laus De\- *|
 cd) e2 (f4 | e4)"^," d2 d2- | d2 g2 f4- |[M:4/4] f2 e2 (d4- | d2 c2)"^," B2 B2- | B2 B2 c2 d2 | %7
w: * * ris stel\-|* la, De\-|* i Ma\-|* ter al\-|* * ma, at\-|* que sem- per|
w: * * cla re\-|* is, pro\-|* fer Lu\-|* men cae\-|* * cis, ma\-|* la no- stra|
w: * * gu- la\-|* ris, in\-|* ter o\-|* mnes mi\-|* * tis, nos|* cul- pis so-|
w: * * o Pa\-|* tri, sum\-|* mo Chri\-|* sto de\-|* * cus, Spi\-|* ri- tu- i|
!<(! (e2 g4!<)!!>(! f2- | f2 e2)!>)!"^," d2 !>!d2- | d2 d2 e2 c2 | (f6 e2 | d8) | !fermata!e8 || %13
w: Vir\- * *|* * go, fe\-|* lix coe- li|por\- *||ta.|
w: pel\- * *|* * le, bo\-|* na cun- cta|po\- *||sce.|
w: lu\- * *|* * tos mi\-|* tes fac et|ca\- *||stos.|
w: San\- * *|* * cto, tri\-|* bus ho- nor|u\- *||nus.|
 f8 | !fermata!e8 |] %15
w: ||
w: ||
w: ||
w: A-|men.|
V:2
 G4 G2 (A2- | AB) c2 (c2 B2 | c4)"^," B2 B2- | B2 c2 (A2 B2 |[M:4/4] c3 B (A2 BA | %5
w: A- ve ma\-|* * ris stel\- *|* la, De\-|* i Ma\- *|* ter al\- * *|
w: Sol- ve vin\-|* * cla re\- *|* is, pro\-|* fer Lu\- *|* men cae\- * *|
w: Vir- go sin\-|* * gu- la\- *|* ris, in\-|* ter o\- *|* mnes mi\- * *|
w: Sit laus De\-|* * o Pa\- *|* tri, sum\-|* mo Chri\- *|* sto de\- * *|
 ^G2 A2)"^," G2 G2- | G2 ^G2 A2 B2 |!<(! c3 B!<)! A2!>(! d2 | c4)!>)!"^," c2 !>!B2- | %9
w: * * ma, at\-|* que sem- per|Vir\- * * *|* go, fe\-|
w: * * cis, ma\-|* la no- stra|pel\- * * *|* le, bo\-|
w: * * tis, nos|* cul- pis so-|lu\- * * *|* tos mi\-|
w: * * cus, Spi\-|* ri- tu- i|San\- * * *|* cto, tri\-|
 B2 B2 (cB) A2 | (A2 dc B2 c2- | c2 BA B4) | !fermata!c8 || A8 | !fermata!G8 |] %15
w: * lix coe\- * li|por\- * * * *||ta.|||
w: * na cun\- * cta|po\- * * * *||sce.|||
w: * tes fac * et|ca\- * * * *||stos.|||
w: * bus ho\- * nor|u\- * * * *||nus.|A-|men.|
V:3
 C4 E2 F2- | F2 E2 (D4 | CDEF)"^," G2 G2- | G2 E2 (F2 D2 |[M:4/4] A3 G (F4 | E2 A,2)"^," E2 E2- | %6
w: A- ve ma\-|* ris stel\-|* * * * la, De\-|* i Ma\- *|* ter al\-|* * ma, at\-|
w: Sol- ve vin\-|* cla re\-|* * * * is, pro\-|* fer Lu\- *|* men cae\-|* * cis, ma\-|
w: Vir- go sin\-|* gu- la\-|* * * * ris, in\-|* ter o\- *|* mnes mi\-|* * tis, nos|
w: Sit laus De\-|* o Pa\-|* * * * tri, sum\-|* mo Chri\- *|* sto de\-|* * cus, Spi\-|
 E2 E2 A2 =G2 |!<(! C2 E2!<)! F2!>(! D2 | A3 G)!>)!"^," F2 !>!G2- | G2 G2 E2 (FE) | (D6 EF | G8) | %12
w: * que sem- per|Vir\- * * *|* * go, fe\-|* lix coe- li *|por\- * *||
w: * la no- stra|pel\- * * *|* * le, bo\-|* na cun- cta *|po\- * *||
w: * cul- pis so-|lu\- * * *|* * tos mi\-|* tes fac et *|ca\- * *||
w: * ri- tu- i|San\- * * *|* * cto, tri\-|* bus ho- nor *|u\- * *||
 !fermata!C8 || F8 | !fermata!C8 |] %15
w: ta.|||
w: sce.|||
w: stos.|||
w: nus.|A-|men.|

